!!!!SEGMENT: pl-sa--481-a-viii-121--051_anonim--adagio.krn
!!!cenid: 18xx:422
!!!COM: Anonim
!!!COM-rismid: pe30004985
!!!CDT:
!!!CNT:
!!!OTL: Adagio
!!!PDT:
!!!AGN: Secular
!!!SMS-siglum: PL-SA
!!!SMS-shelfmark: 481/A VIII 121
!!!SMS-shelfwork: 051 W
!!!SMS-variant:
!!!SMS-altvar:
!!!NIFC-rismid: 1001070740
!!!URL-scan: http://bc.bdsandomierz.pl/dlibra/publication/1212/edition/1171/content
!!!ONB-nifc: Str. 36, s. 1-2
**kern	**kern
*part1	*part1
*staff2	*staff1
*I"Keyb	*
*clefF4	*clefG2
*k[f#]	*k[f#]
*G:	*G:
*M2/4	*M2/4
*>[A,A,B,B]	*>[A,A,B,B]
=1	=1
*>A	*>A
!	!LO:TX:a:i:t=Adagio
!LO:TX:a:t=P:problem:krzyżyk f# przed kluczem	!
16G\LL	8.ddL 8.b\
16d\	.
16B\	.
16d\JJ	16ccJk 16a\
*rep	*
16G\LL	8bL 8g\
16d\	.
16B\	8bJ 8g\
16d\JJ	.
*Xrep	*
=2	=2
16F#\LL	8.ccL 8.a\
16d\	.
16B\	.
16d\JJ	16bJk 16g\
*rep	*
16F#\LL	8aL 8f#\
16d\	.
16B\	8aJ 8f#\
16d\JJ	.
*Xrep	*
=3	=3
16G\LL	8.bL 8.g\
16d\	.
16B\	.
16d\JJ	16ccJk 16a\
*rep	*
16G\LL	16eeLL 16cc\
16d\	16dd 16b\
16B\	16cc 16a\
16d\JJ	16bJJ 16g\
*Xrep	*
=4	=4
4D\	8aL 8f#\
.	8aJ 8f#\
16d\LL	4a 4f#\
16c\	.
16B\	.
16A\JJ	.
=5	=5
16G\LL	8.ddL 8.b\
16d\	.
16B\	.
16d\JJ	16ccJk 16a\
*rep	*
16G\LL	8bL 8g\
16d\	.
16B\	8bJ 8g\
16d\JJ	.
*Xrep	*
=6	=6
16A\LL	8.ccL 8.a\
16d\	.
16B\	.
16d\JJ	16bJk 16g\
*rep	*
16A\LL	8aL 8f#\
16d\	.
16B\	8aJ 8f#\
16d\JJ	.
*Xrep	*
=7	=7
16G\LL	8bL 8g\
16d\	.
16B\	8ccJ 8a\
16d\JJ	.
!LO:TX:t=P:problem:mixed beam	!
8d\L	8bL 8g\
8D/J	8aJ 8f#\
=8	=8
!LO:TX:t=P:problem:mixed beam	!
16GG/LL	8gL 8B/
16G\	.
16D\	8gJ 8B/
16BB\JJ	.
4GG/	4g 4B/
=9:|!|:	=9:|!|:
*>B	*>B
!LO:TX:a:t=P:problem:mixed beam	!
16DD/LL	4a 4f#\
16D\JJ	.
!LO:TX:a:t=P:problem:mixed beam	!
16DD/LL	.
16D\JJ	.
*rep	*
!LO:TX:a:t=P:problem:mixed beam	!
16DD/LL	4b 4g\
16D\JJ	.
!LO:TX:a:t=P:problem:mixed beam	!
16DD/LL	.
16D\JJ	.
*Xrep	*
=10	=10
16DD/LL	8ccL 8a\
16FF#/J	.
8AA/J	8ccJ 8a\
16D/LL	4cc 4a\
16AA/	.
16FF#/	.
16EE/JJ	.
=11	=11
!LO:TX:a:t=P:problem:mixed beam	!
16GG/LL	4b 4g\
16G/JJ	.
!LO:TX:a:t=P:problem:mixed beam	!
16GG/LL	.
16G/JJ	.
*rep	*
!LO:TX:a:t=P:problem:mixed beam	!
16GG/LL	4cc 4a\
16G/JJ	.
!LO:TX:a:t=P:problem:mixed beam	!
16GG/LL	.
16G/JJ	.
*Xrep	*
!LO:LB:g=original	!LO:LB:g=original
=12	=12
16r	8ddL 8b\
16GG\LL	.
16BB\	8ddJ 8b\
16D\JJ	.
16G\LL	4dd 4b\
16D\	.
16BB\	.
16GG\JJ	.
=13	=13
16G\LL	8.ddL 8.b\
16d\	.
16B\	.
16d\JJ	16bJk 16g\
16G\LL	8.ggL 8.ee\
16e\	.
16c\	.
16e\JJ	16eeJk 16cc\
=14	=14
16G\LL	8.ddL 8.b\
16d\	.
16B\	.
16d\JJ	16bJk 16g\
16G\LL	8.ggL 8.ee\
16e\	.
16c\	.
16e\JJ	16eeJk 16cc\
=15	=15
16G\LL	8ddL 8b\
16d\	.
16c\	8ccJ 8a\
16d\JJ	.
!LO:TX:a:t=P:problem:mixed beam	!
8d\L	8bL 8g\
8D/J	8aJ 8f#\
=16	=16
!LO:TX:a:t=P:problem:mixed beam	!
16GG/LL	8gL 8B/
16G\	.
16D\	8gJ 8B/
16BB\JJ	.
4GG/	4g 4B/
==:|!;;	==:|!;;
*-	*-
!!!system-decoration: {s1,s2}
!!!ENC: Marta Lawrence
!!!END: 2020-11-23
!!!ENC: Marta Chmielewska
!!!END: 2020-06-15
